packages/icon/src/svg/history.icon.svg

<svg width="24" height="24" viewBox="0 0 24 24" fill="none" xmlns="http://www.w3.org/2000/svg">
<path fill-rule="evenodd" clip-rule="evenodd" d="M3.47039 17.2225C5.22885 20.0884 8.39118 22 12 22C17.5228 22 22 17.5228 22 12C22 6.47715 17.5228 2 12 2C8.72855 2 5.82401 3.57093 3.99958 5.99958L2.85355 4.85355C2.53857 4.53857 2 4.76166 2 5.20711V9.5C2 9.77614 2.22386 10 2.5 10H6.79289C7.23835 10 7.46143 9.46143 7.14645 9.14645L5.43173 7.43173C6.87714 5.3574 9.28005 4 12 4C16.4183 4 20 7.58172 20 12C20 16.4183 16.4183 20 12 20C9.14844 20 6.64534 18.5081 5.2287 16.2622C5.08147 16.0288 4.77925 15.9386 4.53698 16.0708L3.65875 16.5498C3.41617 16.6821 3.32588 16.987 3.47039 17.2225ZM11.513 6.99933H12.513C12.7891 6.99933 13.013 7.22319 13.013 7.49933V11.5777L15.9126 14.4773C16.1079 14.6726 16.1079 14.9892 15.9126 15.1845L15.2055 15.8916C15.0102 16.0868 14.6937 16.0868 14.4984 15.8916L11.013 12.4062V7.49933C11.013 7.22319 11.2369 6.99933 11.513 6.99933Z" fill="white"/>
</svg>

<svg aria-label="history icon" viewBox="0 0 24 24"><path fill-rule="evenodd" clip-rule="evenodd" d="M3.47 17.223A9.994 9.994 0 0012 22c5.523 0 10-4.477 10-10S17.523 2 12 2a9.985 9.985 0 00-8 4L2.854 4.854A.5.5 0 002 5.207V9.5a.5.5 0 00.5.5h4.293a.5.5 0 00.353-.854L5.432 7.432a8 8 0 11-.203 8.83.525.525 0 00-.692-.191l-.878.479a.481.481 0 00-.189.672zm8.043-10.224h1a.5.5 0 01.5.5v4.079l2.9 2.9a.5.5 0 010 .707l-.707.707a.5.5 0 01-.708 0l-3.485-3.486V7.5a.5.5 0 01.5-.5z"/></svg>
